X:215
T: Farewell to Connacht
S: "Music from Ireland 1" (Bulmer & Sharpley)
R: reel
M: 4/4
L: 1/8
K: Dmix
D2 ED EGAB|cBcd c2 AG|Add^c d2 cd|edcd ed d2|
D2 ED EGAB|cBcd c2 AG|ABAG EGAB|cAGE ED D2 :|
eggf g2 ed|cded cA A2|eaag a2 ag|eaab aged|
eggf g2 ed|cded cA A2|ABAG EGAB|cAGE ED D2 :|
